web/public/background-5.svg

<svg style="object-fit:cover" id="my-svg" version="1" baseProfile="full" width="100%" height="100%" viewBox="0 0 1792 843" xmlns="http://www.w3.org/2000/svg"><rect width="1792" height="843" fill="#ffffff"/><path transform="scale(1, 1)" d="M 0,843 V 0,590 C 335.66666666666663,668.5 671.3333333333333,747 970,747 C 1268.6666666666667,747 1530.3333333333335,668.5 1792,590 C 1792,590 1792,843 1792,843 Z" stroke="none" stroke-width="0" fill="#f5df4d90" class="transition-all duration-300 ease-in-out delay-150" style="transform-origin: center center;"/><path transform="scale(1, 1)" d="M 0,843 V 0,885 C 232.66666666666663,806 465.33333333333326,727 764,727 C 1062.6666666666667,727 1427.3333333333335,806 1792,885 C 1792,885 1792,843 1792,843 Z" stroke="none" stroke-width="0" fill="#f5df4dff" class="transition-all duration-300 ease-in-out delay-150" style="transform-origin: center center;"/></svg>

<svg style="object-fit:cover" version="1" baseProfile="full" viewBox="0 0 1792 843" xmlns="http://www.w3.org/2000/svg"><path fill="#fff" d="M0 0H1792V843H0z"/><path d="M0 843V0v590c335.667 78.5 671.333 157 970 157 298.667 0 560.333-78.5 822-157v253z" fill="#f5df4d90" class="transition-all duration-300 ease-in-out delay-150" style="transform-origin:center center"/><path d="M0 843V0v885c232.667-79 465.333-158 764-158s663.333 79 1028 158v-42z" fill="#f5df4dff" class="transition-all duration-300 ease-in-out delay-150" style="transform-origin:center center"/></svg>
